X:1
T:Partition sans titre
C:Compositeur / Arrangeur
L:1/8
M:4/4
I:linebreak $
K:G
V:1 treble nm="Violon" snm="Vln."
V:1
"G" G3 A G2 D2 |"C" EDCD B,DA,D |"G" G,4 G3 A | BGBd"C" cBAG |"D" FGAB AcBA |"G" G3 A G2 D2 | %6
"C" EDCD B,DA,D |"G" G,4 G3 A |[M:3/2] BGBd"C" cBAG"D" FDEF |1[M:4/4]"G" G3 G GDEF :|2 %10
"G" G3 G G2 Bc |:"G" d2 ef g2 fa |"C" gedc"G" BGBd |"C" cBAG"D" FGAB | AcBA"G" G2 Bc | %15
"G" d2 ef g2 fa |"C" gedc"G" BGBd |"C" cBAG"D" FDEF |1"G" G3 G G2 Bc :|2"G" G3 G GDEF |] %20
